images_sukapura_svg/cmd/sc_defaultbullet.svg

<svg viewBox="0 0 16 16" xmlns="http://www.w3.org/2000/svg" xmlns:xlink="http://www.w3.org/1999/xlink"><linearGradient id="a" gradientTransform="translate(-25.830508 -3.59322)" gradientUnits="userSpaceOnUse" x1="14" x2="13.79661" y1="22" y2="2.135593"><stop offset="0" stop-color="#0040dd"/><stop offset="1" stop-color="#0a84ff"/></linearGradient><linearGradient id="b" gradientUnits="userSpaceOnUse" x1="2.559322" x2="2.576271" xlink:href="#a" y1="12.720339" y2="10.144068"/><linearGradient id="c" gradientUnits="userSpaceOnUse" x1="2.486123" x2="2.32212" xlink:href="#a" y1="4.938183" y2="2.061817"/><linearGradient id="d" gradientUnits="userSpaceOnUse" x1="2.629941" x2="2.753574" xlink:href="#a" y1="12.938183" y2="10.061817"/><g fill="#69696e" transform="scale(-1 1)"><rect height="1" ry=".5" width="10" x="-15" y="2"/><rect height="1" ry=".5" width="6.000002" x="-11" y="5"/><rect height="1" ry=".5" width="10" x="-14.999999" y="10"/><rect height="1" ry=".5" width="6.000002" x="-11" y="13"/></g><g fill="#e9e9e9" fill-opacity=".992157" transform="matrix(-1 0 0 1 0 1)"><rect height="1" ry=".5" width="10" x="-15" y="2"/><rect height="1" ry=".5" width="6.000002" x="-11" y="5"/><rect height="1" ry=".5" width="10" x="-14.999999" y="10"/><rect height="1" ry=".5" width="6.000002" x="-11" y="13"/></g><ellipse cx="2.5" cy="11.5" fill="url(#b)"/><path d="m4 3.5a1.5 1.5 0 0 1 -1.5 1.5 1.5 1.5 0 0 1 -1.5-1.5 1.5 1.5 0 0 1 1.5-1.5 1.5 1.5 0 0 1 1.5 1.5z" fill="url(#c)"/><path d="m4 11.5a1.5 1.5 0 0 1 -1.5 1.5 1.5 1.5 0 0 1 -1.5-1.5 1.5 1.5 0 0 1 1.5-1.5 1.5 1.5 0 0 1 1.5 1.5z" fill="url(#d)"/></svg>

<?xml version="1.0" encoding="UTF-8" standalone="no"?>
<svg
   xmlns:dc="http://purl.org/dc/elements/1.1/"
   xmlns:cc="http://creativecommons.org/ns#"
   xmlns:rdf="http://www.w3.org/1999/02/22-rdf-syntax-ns#"
   xmlns:svg="http://www.w3.org/2000/svg"
   xmlns="http://www.w3.org/2000/svg"
   xmlns:xlink="http://www.w3.org/1999/xlink"
   xmlns:sodipodi="http://sodipodi.sourceforge.net/DTD/sodipodi-0.dtd"
   xmlns:inkscape="http://www.inkscape.org/namespaces/inkscape"
   viewBox="0 0 16 16"
   version="1.1"
   id="svg18"
   sodipodi:docname="sc_defaultbullet.svg"
   inkscape:version="0.92.3 (unknown)"
   inkscape:export-filename="/home/rizmut/Dokumen/Rizmut/Github/libreoffice-style-sukapura/images_sukapura/cmd/sc_defaultbullet.png"
   inkscape:export-xdpi="96"
   inkscape:export-ydpi="96">
  <metadata
     id="metadata24">
    <rdf:RDF>
      <cc:Work
         rdf:about="">
        <dc:format>image/svg+xml</dc:format>
        <dc:type
           rdf:resource="http://purl.org/dc/dcmitype/StillImage" />
      </cc:Work>
    </rdf:RDF>
  </metadata>
  <defs
     id="defs22">
    <linearGradient
       gradientTransform="translate(-25.830508,-3.5932203)"
       id="a"
       gradientUnits="userSpaceOnUse"
       x1="14"
       x2="13.79661"
       y1="22"
       y2="2.1355929">
      <stop
         offset="0"
         stop-color="#0040dd"
         id="stop2" />
      <stop
         offset="1"
         stop-color="#0a84ff"
         id="stop4" />
    </linearGradient>
    <linearGradient
       inkscape:collect="always"
       xlink:href="#a"
       id="linearGradient1215"
       gradientUnits="userSpaceOnUse"
       gradientTransform="matrix(-1,0,0,1,-29.010942,26.95119)"
       x1="-31.010942"
       y1="-4.95119"
       x2="-31.010942"
       y2="-16.951191" />
    <linearGradient
       inkscape:collect="always"
       xlink:href="#a"
       id="linearGradient860"
       x1="2.6949153"
       y1="13.127119"
       x2="2.3728814"
       y2="10.008474"
       gradientUnits="userSpaceOnUse" />
    <linearGradient
       inkscape:collect="always"
       xlink:href="#a"
       id="linearGradient862"
       x1="2.6271186"
       y1="4.8559322"
       x2="2.6440678"
       y2="2.3474576"
       gradientUnits="userSpaceOnUse" />
    <linearGradient
       inkscape:collect="always"
       xlink:href="#a"
       id="linearGradient863"
       x1="2.5593221"
       y1="12.720339"
       x2="2.5762713"
       y2="10.144068"
       gradientUnits="userSpaceOnUse" />
    <linearGradient
       inkscape:collect="always"
       xlink:href="#a"
       id="linearGradient865"
       x1="2.6271186"
       y1="4.9237289"
       x2="2.6440678"
       y2="2.2118645"
       gradientUnits="userSpaceOnUse" />
    <linearGradient
       inkscape:collect="always"
       xlink:href="#a"
       id="linearGradient906"
       x1="2.4861226"
       y1="4.9381833"
       x2="2.3221195"
       y2="2.0618167"
       gradientUnits="userSpaceOnUse" />
    <linearGradient
       inkscape:collect="always"
       xlink:href="#a"
       id="linearGradient908"
       x1="2.629941"
       y1="12.938183"
       x2="2.7535744"
       y2="10.061817"
       gradientUnits="userSpaceOnUse" />
  </defs>
  <sodipodi:namedview
     pagecolor="#ffffff"
     bordercolor="#666666"
     borderopacity="1"
     objecttolerance="10"
     gridtolerance="10"
     guidetolerance="10"
     inkscape:pageopacity="0"
     inkscape:pageshadow="2"
     inkscape:window-width="1366"
     inkscape:window-height="706"
     id="namedview20"
     showgrid="false"
     inkscape:zoom="7.375"
     inkscape:cx="-11.662587"
     inkscape:cy="13.355154"
     inkscape:window-x="0"
     inkscape:window-y="0"
     inkscape:window-maximized="1"
     inkscape:current-layer="svg18" />
  <g
     fill="#69696e"
     transform="scale(-1 1)"
     id="g12">
    <rect
       height="1"
       ry=".5"
       width="10"
       x="-15"
       y="2"
       id="rect2" />
    <rect
       height="1"
       ry=".5"
       width="6.000002"
       x="-11"
       y="5"
       id="rect4" />
    <g
       id="g10">
      <rect
         height="1"
         ry=".5"
         width="10"
         x="-14.999999"
         y="10"
         id="rect6" />
      <rect
         height="1"
         ry=".5"
         width="6.000002"
         x="-11"
         y="13"
         id="rect8" />
    </g>
  </g>
  <path
     id="circle14"
     style="fill-opacity:1;fill:url(#linearGradient862)"
     fill="#0a84ff"
     r="1.5"
     cy="3.5"
     cx="2.5" />
  <path
     id="circle16"
     style="fill-opacity:1;fill:url(#linearGradient860)"
     fill="#0a84ff"
     r="1.5"
     cy="11.5"
     cx="2.5" />
  <g
     id="g874"
     transform="matrix(-1,0,0,1,0,1)"
     style="fill:#e9e9e9;fill-opacity:0.99215686">
    <rect
       id="rect864"
       y="2"
       x="-15"
       width="10"
       ry="0.5"
       height="1"
       style="fill:#e9e9e9;fill-opacity:0.99215686" />
    <rect
       id="rect866"
       y="5"
       x="-11"
       width="6.0000019"
       ry="0.5"
       height="1"
       style="fill:#e9e9e9;fill-opacity:0.99215686" />
    <g
       id="g872"
       style="fill:#e9e9e9;fill-opacity:0.99215686">
      <rect
         id="rect868"
         y="10"
         x="-14.999999"
         width="10"
         ry="0.5"
         height="1"
         style="fill:#e9e9e9;fill-opacity:0.99215686" />
      <rect
         id="rect870"
         y="13"
         x="-11"
         width="6.0000019"
         ry="0.5"
         height="1"
         style="fill:#e9e9e9;fill-opacity:0.99215686" />
    </g>
  </g>
  <path
     style="fill:url(#linearGradient865);fill-opacity:1"
     id="circle12"
     r="1.5"
     cy="3.5"
     cx="2.5" />
  <ellipse
     style="fill:url(#linearGradient863);fill-opacity:1"
     cx="2.5"
     cy="11.5"
     id="circle14-3"
     r="1.5" />
  <path
     style="fill:url(#linearGradient906);fill-opacity:1"
     d="M 4,3.5 A 1.5,1.5 0 0 1 2.5,5 1.5,1.5 0 0 1 1,3.5 1.5,1.5 0 0 1 2.5,2 1.5,1.5 0 0 1 4,3.5 Z"
     id="circle12-5" />
  <path
     style="fill:url(#linearGradient908);fill-opacity:1"
     d="M 4,11.5 A 1.5,1.5 0 0 1 2.5,13 1.5,1.5 0 0 1 1,11.5 1.5,1.5 0 0 1 2.5,10 1.5,1.5 0 0 1 4,11.5 Z"
     id="circle14-35" />
</svg>
